!!!COM: Music21
!!!OTL: Carballesa do Incio
!!!OMV: pezas_muineiras_carballesas_carballesa-do-incio_carballesa-do-incio-partitura.musicxml
**kern
*part1
*staff1
*I"Bagpipes
*I'Bag
*clefG^2
*k[]
*M2/4
=1
!LO:TX:a:t=Presto
*MM184
!LO:TX:a:t=[quarter]=184
8eeL
8ffJ
8ggL
8aaJ
=
4ee
8eeL
8ccJ
=
8eeL
8ddJ
8ccL
8bJ
=
4ee
4ee
=
8eeL
8ffJ
8ggL
8aaJ
=
4ee
8eeL
8ccJ
=
8eeL
8ddJ
8ccL
8bJ
=
4cc
4cc
!!linebreak:original
=||
*M2/4
!LO:TX:a:t=Presto
*MM184
!LO:TX:a:t=[quarter]=184
8eeL
8ffJ
8ggL
8aaJ
=
4ee
8eeL
8ccJ
=
8eeL
8ddJ
8ccL
8bJ
=
4ee
4ee
=
8eeL
8ffJ
8ggL
8aaJ
=
4ee
8eeL
8ccJ
=
8eeL
8ddJ
8ccL
8bJ
=
4cc
8ccL
8eeJ
=||
8eeL
8ddJ
8ddL
8ffJ
!!linebreak:original
=
8ffL
8eeJ
8eeL
8ggJ
=
8ggL
8ffJ
8eeL
8ddJ
=
8eeL
8ccJ
8ccL
8eeJ
=
8eeL
8ddJ
8ddL
8ffJ
=
8ffL
8eeJ
8eeL
8ggJ
=
8ggL
8ffJ
8eeL
8ddJ
=
4cc
8ccL
8eeJ
=||
8eeL
8ddJ
8ddL
8ffJ
!!linebreak:original
=
8ffL
8eeJ
8eeL
8ggJ
=
8ggL
8ffJ
8eeL
8ddJ
=
8eeL
8ccJ
8ccL
8eeJ
=
8eeL
8ddJ
8ddL
8ffJ
=
8ffL
8eeJ
8eeL
8ggJ
=
8ggL
8ffJ
8eeL
8ddJ
=
4cc
8ggL
8ffJ
=||
8ffL
8eeJ
8ggL
8ffJ
!!linebreak:original
=
8ffL
8eeJ
8ggL
8ffJ
=
8eeL
8ddJ
8ccL
8ddJ
=
4ee
8ffL
8eeJ
=
8eeL
8ddJ
8ffL
8eeJ
=
8eeL
8ddJ
8ffL
8eeJ
=
8ddL
8ccJ
8bL
8ddJ
=
4cc
8ggL
8ffJ
=||
8ffL
8eeJ
8ggL
8ffJ
!!pagebreak:original
=
8ffL
8eeJ
8ggL
8ffJ
=
8eeL
8ddJ
8ccL
8ddJ
=
4ee
8ffL
8eeJ
=
8eeL
8ddJ
8ffL
8eeJ
=
8eeL
8ddJ
8ffL
8eeJ
=
8ddL
8ccJ
8bL
8ddJ
=
4cc
8ccL
8ddJ
=||
8eeL
8ffJ
8ffL
8eeJ
!!linebreak:original
=
8ddL
8ccJ
8bL
8ccJ
=
8ddL
8eeJ
8ddL
8ccJ
=
4ee
8ccL
8ddJ
=
8eeL
8ffJ
8ffL
8eeJ
=
8ddL
8ccJ
8bL
8ccJ
=
8ddL
8ffJ
8eeL
8ddJ
=
4cc
8ccL
8ddJ
=||
8eeL
8ffJ
8ffL
8eeJ
!!linebreak:original
=
8ddL
8ccJ
8bL
8ccJ
=
8ddL
8eeJ
8ddL
8ccJ
=
4ee
8ccL
8ddJ
=
8eeL
8ffJ
8ffL
8eeJ
=
8ddL
8ccJ
8bL
8ccJ
=
8ddL
8ffJ
8eeL
8ddJ
=
4cc
4cc
==
*-
!!!system-decoration: s1,s2
